pwa/images/network-request.svg

<?xml version="1.0"?>
<svg width="560" height="200" xmlns="http://www.w3.org/2000/svg" xmlns:svg="http://www.w3.org/2000/svg" xmlns:xlink="http://www.w3.org/1999/xlink">
 <!-- Created with SVG-edit - https://github.com/SVG-Edit/svgedit-->
 <defs>
  <symbol id="svg_2" viewBox="0, 0, 800, 500" xmlns="http://www.w3.org/2000/svg" xmlns:xlink="http://www.w3.org/1999/xlink">
   <g id="svg_1">
    <g id="svg_5">
     <path d="m303.383,275.75l150.234,0" fill-opacity="0" id="svg_6" stroke="#FFD919" stroke-linecap="round" stroke-width="6"/>
     <path d="m453.617,281.75l16,-6l-16,-6l0,12z" fill="#FFD919" id="svg_7" stroke="#FFD919" stroke-width="6"/>
    </g>
    <g id="svg_8">
     <path d="m324.383,325.25l150.234,0" fill-opacity="0" id="svg_9" stroke="#FFD919" stroke-linecap="round" stroke-width="6"/>
     <path d="m324.383,319.25l-16,6l16,6l0,-12z" fill="#FFD919" id="svg_10" stroke="#FFD919" stroke-width="6"/>
    </g>
    <g id="svg_11">
     <g id="svg_12">
      <path d="m597.806,188.223c23.395,-8.082 49.785,3.735 58.44,26.623c5.043,-3.926 10.916,-6.576 16.865,-8.82c34.301,-11.973 71.662,5.691 83.447,39.453c4.851,13.841 4.346,26.486 0.532,40.504c10.759,5.055 18.405,14.654 22.51,25.51c8.319,23.832 -4.565,50.004 -28.778,58.455c-17.218,5.89 -36.972,1.445 -49.194,-11.898c-7.241,21.076 -24.149,36.488 -44.752,44.691c-37.76,13.18 -78.888,-6.265 -91.862,-43.432l-0.479,-1.499c-24.114,0.984 -45.107,-15.16 -53.286,-36.789c-10.052,-28.798 5.517,-60.422 34.774,-70.634c7.509,-2.759 15.41,-3.423 23.309,-2.96l-0.304,-0.748c-8.319,-23.832 4.566,-50.004 28.778,-58.455l0,-0.001z" fill="#DDDDDD" id="svg_13"/>
      <path d="m597.806,188.223c23.395,-8.082 49.785,3.735 58.44,26.623c5.043,-3.926 10.916,-6.576 16.865,-8.82c34.301,-11.973 71.662,5.691 83.447,39.453c4.851,13.841 4.346,26.486 0.532,40.504c10.759,5.055 18.405,14.654 22.51,25.51c8.319,23.832 -4.565,50.004 -28.778,58.455c-17.218,5.89 -36.972,1.445 -49.194,-11.898c-7.241,21.076 -24.149,36.488 -44.752,44.691c-37.76,13.18 -78.888,-6.265 -91.862,-43.432l-0.479,-1.499c-24.114,0.984 -45.107,-15.16 -53.286,-36.789c-10.052,-28.798 5.517,-60.422 34.774,-70.634c7.509,-2.759 15.41,-3.423 23.309,-2.96l-0.304,-0.748c-8.319,-23.832 4.566,-50.004 28.778,-58.455l0,-0.001z" fill-opacity="0" id="svg_14" stroke="#000000" stroke-linecap="round" stroke-width="2.5"/>
     </g>
     <text fill="#000000" id="svg_15" transform="matrix(1, 0, -0, 1, 644.662, 295.773)">
      <tspan font-family="HelveticaNeue-Medium" font-size="38" id="svg_16" x="-73.549" y="14.402">Network</tspan>
     </text>
    </g>
    <g id="svg_17">
     <g id="svg_18">
      <path d="m62.263,170.25l191.474,0c6.22,0 11.263,6.138 11.263,13.71l0,233.079c0,7.573 -5.043,13.711 -11.263,13.711l-191.474,0c-6.22,0 -11.263,-6.138 -11.263,-13.711l0,-233.079c0,-7.572 5.043,-13.71 11.263,-13.71z" fill="#DDDDDD" id="svg_19"/>
      <path d="m62.263,170.25l191.474,0c6.22,0 11.263,6.138 11.263,13.71l0,233.079c0,7.573 -5.043,13.711 -11.263,13.711l-191.474,0c-6.22,0 -11.263,-6.138 -11.263,-13.711l0,-233.079c0,-7.572 5.043,-13.71 11.263,-13.71z" fill-opacity="0" id="svg_20" stroke="#000000" stroke-linecap="round" stroke-width="2.5"/>
     </g>
     <text fill="#000000" id="svg_21" transform="matrix(1, 0, -0, 1, 157.5, 300)">
      <tspan font-family="HelveticaNeue-Medium" font-size="38" id="svg_22" x="-72.884" y="14.402">Browser</tspan>
     </text>
    </g>
   </g>
  </symbol>
 </defs>
 <g class="layer">
  <title>Layer 1</title>
  <use id="svg_3" transform="matrix(1.82541 0 0 1.82541 -248.415 -134.383)" x="2.637791" xlink:href="#svg_2" y="8.14109"/>
  <g id="svg_4"/>
 </g>
</svg>

<?xml version="1.0" encoding="UTF-8"?>
<!DOCTYPE svg PUBLIC "-//W3C//DTD SVG 1.1//EN" "http://www.w3.org/Graphics/SVG/1.1/DTD/svg11.dtd">
<svg version="1.1" xmlns="http://www.w3.org/2000/svg" xmlns:xlink="http://www.w3.org/1999/xlink" x="0" y="0" width="800" height="500" viewBox="0, 0, 800, 500">
  <g id="Layer_1">
    <g>
      <path d="M303.383,275.75 L453.617,275.75" fill-opacity="0" stroke="#FFD919" stroke-width="6" stroke-linecap="round"/>
      <path d="M453.617,281.75 L469.617,275.75 L453.617,269.75 z" fill="#FFD919" fill-opacity="1" stroke="#FFD919" stroke-width="6" stroke-opacity="1"/>
    </g>
    <g>
      <path d="M324.383,325.25 L474.617,325.25" fill-opacity="0" stroke="#FFD919" stroke-width="6" stroke-linecap="round"/>
      <path d="M324.383,319.25 L308.383,325.25 L324.383,331.25 z" fill="#FFD919" fill-opacity="1" stroke="#FFD919" stroke-width="6" stroke-opacity="1"/>
    </g>
    <g>
      <g>
        <path d="M597.806,188.223 C621.201,180.141 647.591,191.958 656.246,214.846 C661.289,210.92 667.162,208.27 673.111,206.026 C707.412,194.053 744.773,211.717 756.558,245.479 C761.409,259.32 760.904,271.965 757.09,285.983 C767.849,291.038 775.495,300.637 779.6,311.493 C787.919,335.325 775.035,361.497 750.822,369.948 C733.604,375.838 713.85,371.393 701.628,358.05 C694.387,379.126 677.479,394.538 656.876,402.741 C619.116,415.921 577.988,396.476 565.014,359.309 L564.535,357.81 C540.421,358.794 519.428,342.65 511.249,321.021 C501.197,292.223 516.766,260.599 546.023,250.387 C553.532,247.628 561.433,246.964 569.332,247.427 L569.028,246.679 C560.709,222.847 573.594,196.675 597.806,188.224 z" fill="#DDDDDD"/>
        <path d="M597.806,188.223 C621.201,180.141 647.591,191.958 656.246,214.846 C661.289,210.92 667.162,208.27 673.111,206.026 C707.412,194.053 744.773,211.717 756.558,245.479 C761.409,259.32 760.904,271.965 757.09,285.983 C767.849,291.038 775.495,300.637 779.6,311.493 C787.919,335.325 775.035,361.497 750.822,369.948 C733.604,375.838 713.85,371.393 701.628,358.05 C694.387,379.126 677.479,394.538 656.876,402.741 C619.116,415.921 577.988,396.476 565.014,359.309 L564.535,357.81 C540.421,358.794 519.428,342.65 511.249,321.021 C501.197,292.223 516.766,260.599 546.023,250.387 C553.532,247.628 561.433,246.964 569.332,247.427 L569.028,246.679 C560.709,222.847 573.594,196.675 597.806,188.224 z" fill-opacity="0" stroke="#000000" stroke-width="2.5" stroke-linecap="round"/>
      </g>
      <text fill="#000000" transform="matrix(1, 0, -0, 1, 644.662, 295.773)">
        <tspan x="-73.549" y="14.402" font-family="HelveticaNeue-Medium" font-size="38">Network</tspan>
      </text>
    </g>
    <g>
      <g>
        <path d="M62.263,170.25 L253.737,170.25 C259.957,170.25 265,176.388 265,183.96 L265,417.039 C265,424.612 259.957,430.75 253.737,430.75 L62.263,430.75 C56.043,430.75 51,424.612 51,417.039 L51,183.96 C51,176.388 56.043,170.25 62.263,170.25 z" fill="#DDDDDD"/>
        <path d="M62.263,170.25 L253.737,170.25 C259.957,170.25 265,176.388 265,183.96 L265,417.039 C265,424.612 259.957,430.75 253.737,430.75 L62.263,430.75 C56.043,430.75 51,424.612 51,417.039 L51,183.96 C51,176.388 56.043,170.25 62.263,170.25 z" fill-opacity="0" stroke="#000000" stroke-width="2.5" stroke-linecap="round"/>
      </g>
      <text fill="#000000" transform="matrix(1, 0, -0, 1, 157.5, 300)">
        <tspan x="-72.884" y="14.402" font-family="HelveticaNeue-Medium" font-size="38">Browser</tspan>
      </text>
    </g>
  </g>
</svg>
